image/why/icon-9.svg

<svg width="48" height="48" viewBox="0 0 48 48" fill="none" xmlns="http://www.w3.org/2000/svg">
<mask id="path-1-inside-1_16160_14659" fill="white">
<path fill-rule="evenodd" clip-rule="evenodd" d="M30.156 30.3639C34.3406 28.1519 37.1922 23.7554 37.1922 18.6928C37.1922 11.4066 31.2856 5.5 23.9994 5.5C16.7132 5.5 10.8066 11.4066 10.8066 18.6928C10.8066 23.7554 13.6582 28.1519 17.8428 30.3639V38.0422C17.8428 39.4994 19.0241 40.6807 20.4813 40.6807H27.5175C28.9747 40.6807 30.156 39.4994 30.156 38.0422V30.3639Z"/>
</mask>
<path d="M30.156 30.3639L29.2214 28.5957L28.156 29.1589V30.3639H30.156ZM17.8428 30.3639H19.8428V29.1589L18.7774 28.5957L17.8428 30.3639ZM35.1922 18.6928C35.1922 22.9851 32.7766 26.7164 29.2214 28.5957L31.0907 32.1321C35.9046 29.5874 39.1922 24.5256 39.1922 18.6928H35.1922ZM23.9994 7.5C30.181 7.5 35.1922 12.5112 35.1922 18.6928H39.1922C39.1922 10.302 32.3901 3.5 23.9994 3.5V7.5ZM12.8066 18.6928C12.8066 12.5112 17.8178 7.5 23.9994 7.5V3.5C15.6087 3.5 8.80664 10.302 8.80664 18.6928H12.8066ZM18.7774 28.5957C15.2222 26.7164 12.8066 22.9851 12.8066 18.6928H8.80664C8.80664 24.5256 12.0942 29.5874 16.9081 32.1321L18.7774 28.5957ZM19.8428 38.0422V30.3639H15.8428V38.0422H19.8428ZM20.4813 38.6807C20.1287 38.6807 19.8428 38.3948 19.8428 38.0422H15.8428C15.8428 40.604 17.9195 42.6807 20.4813 42.6807V38.6807ZM27.5175 38.6807H20.4813V42.6807H27.5175V38.6807ZM28.156 38.0422C28.156 38.3948 27.8701 38.6807 27.5175 38.6807V42.6807C30.0793 42.6807 32.156 40.604 32.156 38.0422H28.156ZM28.156 30.3639V38.0422H32.156V30.3639H28.156Z" fill="#2E2E2E" mask="url(#path-1-inside-1_16160_14659)"/>
<path d="M23.9995 35.4042V22.2114M23.9995 22.2114L20.4814 18.6934M23.9995 22.2114L27.5176 18.6934" stroke="#C63031" stroke-width="2" stroke-linecap="round" stroke-linejoin="round"/>
<path d="M18.7227 35.4043H29.2769" stroke="#2E2E2E" stroke-width="2"/>
<path d="M20.4329 40.1722C20.6993 40.8383 21.5037 42.9996 23.9999 42.9996V40.9996C22.978 40.9996 22.6097 40.2292 22.2898 39.4294L20.4329 40.1722ZM23.9999 42.9996C25.1929 42.9996 26.0732 42.4897 26.6598 41.8521C27.222 41.241 27.515 40.5172 27.619 39.9969L25.6579 39.6047C25.6153 39.8173 25.4686 40.1929 25.1879 40.498C24.9316 40.7765 24.5659 40.9996 23.9999 40.9996V42.9996Z" fill="#2E2E2E"/>
</svg>

<svg width="48" height="48" fill="none" xmlns="http://www.w3.org/2000/svg"><mask id="a" fill="#fff"><path fill-rule="evenodd" clip-rule="evenodd" d="M30.156 30.364a13.191 13.191 0 0 0 7.036-11.671C37.192 11.407 31.286 5.5 24 5.5c-7.286 0-13.192 5.907-13.192 13.193 0 5.062 2.851 9.459 7.036 11.67v7.68a2.639 2.639 0 0 0 2.638 2.638h7.036a2.639 2.639 0 0 0 2.639-2.639v-7.678Z"/></mask><path d="m30.156 30.364-.935-1.768-1.065.563v1.205h2Zm-12.313 0h2v-1.205l-1.066-.563-.934 1.768Zm17.35-11.671c0 4.292-2.416 8.023-5.972 9.903l1.87 3.536c4.814-2.545 8.101-7.606 8.101-13.44h-4ZM23.998 7.5c6.182 0 11.193 5.011 11.193 11.193h4C39.192 10.302 32.39 3.5 24 3.5v4ZM12.807 18.693c0-6.182 5.01-11.193 11.192-11.193v-4c-8.39 0-15.192 6.802-15.192 15.193h4Zm5.97 9.903a11.191 11.191 0 0 1-5.97-9.903h-4c0 5.833 3.287 10.894 8.101 13.44l1.87-3.537Zm1.066 9.446v-7.678h-4v7.678h4Zm.638.639a.639.639 0 0 1-.638-.639h-4a4.638 4.638 0 0 0 4.638 4.639v-4Zm7.036 0h-7.036v4h7.036v-4Zm.639-.639a.639.639 0 0 1-.639.639v4a4.638 4.638 0 0 0 4.639-4.639h-4Zm0-7.678v7.678h4v-7.678h-4Z" fill="#2E2E2E" mask="url(#a)"/><path d="M24 35.404V22.211m0 0-3.519-3.518M24 22.211l3.519-3.518" stroke="#C63031" stroke-width="2" stroke-linecap="round" stroke-linejoin="round"/><path d="M18.723 35.404h10.554" stroke="#2E2E2E" stroke-width="2"/><path d="M20.433 40.172C20.699 40.838 21.503 43 24 43v-2c-1.022 0-1.39-.77-1.71-1.57l-1.857.742ZM24 43c1.193 0 2.073-.51 2.66-1.148a4.006 4.006 0 0 0 .959-1.855l-1.961-.392c-.043.212-.19.588-.47.893-.256.279-.622.502-1.188.502v2Z" fill="#2E2E2E"/></svg>
